modules/framework7-icons/icons/money_pound.svg

<?xml version="1.0" encoding="UTF-8"?>
<svg width="50px" height="50px" viewBox="0 0 50 50" version="1.1" xmlns="http://www.w3.org/2000/svg" xmlns:xlink="http://www.w3.org/1999/xlink">
    <!-- Generator: Sketch 40.1 (33804) - http://www.bohemiancoding.com/sketch -->
    <title>money_pound</title>
    <desc>Created with Sketch.</desc>
    <defs></defs>
    <g id="Page-1" stroke="none" stroke-width="1" fill="none" fill-rule="evenodd">
        <g id="money_pound" fill="#000000">
            <path d="M48,25 C48,12.2974508 37.7025492,2 25,2 C12.2974508,2 2,12.2974508 2,25 C2,37.7025492 12.2974508,48 25,48 C37.7025492,48 48,37.7025492 48,25 Z M0,25 C0,11.1928813 11.1928813,0 25,0 C38.8071187,0 50,11.1928813 50,25 C50,38.8071187 38.8071187,50 25,50 C11.1928813,50 0,38.8071187 0,25 Z" id="Oval-43"></path>
            <path d="M18.3964844,35.9257812 L18.3964844,35.8554688 C20.4179688,34.8886719 22.6152344,32.9375 22.6152344,29.6679688 C22.6152344,28.5253906 22.3691406,27.4003906 22.0175781,26.3105469 L29.59375,26.3105469 L29.59375,24.3417969 L21.3320312,24.3417969 C20.7167969,22.6367188 20.1191406,20.9316406 20.1191406,19.1210938 C20.1191406,16.1328125 22.421875,14.1992188 26.4472656,14.1992188 C28.7148438,14.1992188 30.8417969,14.6738281 31.7558594,15.2011719 L31.7558594,13.0390625 C30.7011719,12.5117188 28.6621094,12.0546875 26.3417969,12.0546875 C20.875,12.0546875 17.6757812,14.796875 17.6757812,19.1738281 C17.6757812,20.9667969 18.2734375,22.671875 18.8886719,24.3417969 L14.7402344,24.3417969 L14.7402344,26.3105469 L19.609375,26.3105469 C19.9785156,27.453125 20.2597656,28.5957031 20.2597656,29.7558594 C20.2597656,32.8496094 17.7109375,35.1699219 14.4765625,35.9433594 L14.4765625,38 L33.1796875,38 L33.1796875,35.9257812 L18.3964844,35.9257812 Z" id="£"></path>
        </g>
    </g>
</svg>

<svg width="50" height="50" viewBox="0 0 50 50" xmlns="http://www.w3.org/2000/svg"><g fill="#000" fill-rule="evenodd"><path d="M48 25C48 12.297 37.703 2 25 2S2 12.297 2 25s10.297 23 23 23 23-10.297 23-23zM0 25C0 11.193 11.193 0 25 0s25 11.193 25 25-11.193 25-25 25S0 38.807 0 25z"/><path d="M18.396 35.926v-.07c2.022-.967 4.22-2.919 4.22-6.188 0-1.143-.247-2.268-.598-3.357h7.576v-1.97h-8.262c-.615-1.704-1.213-3.41-1.213-5.22 0-2.988 2.303-4.922 6.328-4.922 2.268 0 4.395.475 5.309 1.002V13.04c-1.055-.527-3.094-.984-5.414-.984-5.467 0-8.666 2.742-8.666 7.119 0 1.793.597 3.498 1.213 5.168H14.74v1.969h4.87c.369 1.142.65 2.285.65 3.445 0 3.094-2.55 5.414-5.783 6.187V38H33.18v-2.074H18.396z"/></g></svg>
